X:196
M:C|
L:1/8
K:G
|:B>GA>B A>FE>D|B>GA>B E/E/E E2|B>GA>BA>FE>D|d>Bc>A G/G/G G2:|
|:g>dB>G g>DB>G|B>GA>B E/E/E E2|g>dB>G g>dB>G|d>Bc>A G/G/G G2:|

